dist/img/emailic.svg

<svg width="47" height="48" viewBox="0 0 47 48" fill="none" xmlns="http://www.w3.org/2000/svg">
<path d="M46.5418 20.1591L37.2314 14.1593C37.1586 14.113 37.0783 14.0954 37 14.0695V12.0002C37 11.4476 36.5527 11.0001 35.9999 11.0001H32.2866L24.5303 6.15233C24.2063 5.94914 23.7941 5.94914 23.4698 6.15233L15.7135 11.0001H11.0001C10.4475 11.0001 10 11.4473 10 12.0002V14.0689C9.92173 14.0948 9.84115 14.1127 9.76862 14.1593L0.458183 20.1591C0.17297 20.3436 0 20.6602 0 20.9998V46.9997C0 47.5523 0.447246 47.9998 1.00012 47.9998H45.9999C46.5525 47.9998 47 47.5525 47 46.9997V21.0001C47 20.6602 46.827 20.3439 46.5418 20.1591ZM24.0002 8.1799L28.5132 11.0001H19.4872L24.0002 8.1799ZM12.0002 13H35V35.4999C35 35.5028 35.0018 35.5051 35.0018 35.5083L31.6189 37.5623L23.4787 33.1224C23.1751 32.9583 22.8058 32.9592 22.5042 33.1322L15.076 37.377L11.9988 35.5086C11.9988 35.5057 12.0005 35.5034 12.0005 35.5005L12.0002 13ZM2.00023 21.5449L10 16.3904V34.2952L2.00023 29.4376V21.5449ZM2.00023 31.7766L13.0913 38.5103L2.00023 44.8483V31.7766ZM4.01543 46.0001L23.0119 35.1456L42.912 46.0001H4.01543ZM45.0001 44.8607L33.6479 38.6689L45.0001 31.7763V44.8607ZM45.0001 29.4376L37 34.2949V16.3904L45.0001 21.5452V29.4376Z" fill="white"/>
<path d="M16.0001 23H28.0001C28.5527 23 29.0002 22.5528 29.0002 21.9999V16.0001C29.0002 15.4475 28.5529 14.9999 28.0001 14.9999H16.0001C15.4475 14.9999 15 15.4472 15 16.0001V21.9999C15 22.5528 15.4475 23 16.0001 23ZM16.9999 16.9999H27V20.9998H16.9999V16.9999Z" fill="white"/>
<path d="M30.9998 25H15V26.9999H30.9998V25Z" fill="white"/>
<path d="M30.9998 29.0002H15V31.0001H30.9998V29.0002Z" fill="white"/>
<path d="M42 12.0002C42.2559 12.0002 42.5117 11.9027 42.7071 11.7072L46.2422 8.17215C46.6328 7.7816 46.6328 7.14872 46.2422 6.75817C45.8517 6.36733 45.2188 6.36762 44.8282 6.75817L41.2932 10.2933C40.9026 10.6838 40.9026 11.3167 41.2932 11.7072C41.4883 11.9027 41.7441 12.0002 42 12.0002Z" fill="white"/>
<path d="M4.29309 11.7072C4.48851 11.9026 4.74436 12.0002 5.00022 12.0002C5.25608 12.0002 5.51193 11.9026 5.70735 11.7072C6.0979 11.3166 6.0979 10.6838 5.70735 10.2932L2.17198 6.75812C1.78143 6.36757 1.14855 6.36757 0.758 6.75812C0.367451 7.14867 0.367451 7.78155 0.758 8.1721L4.29309 11.7072Z" fill="white"/>
<path d="M33.629 6.92883C33.7502 6.97776 33.8762 6.99992 34 6.99992C34.3966 6.99992 34.7725 6.76248 34.9287 6.37107L36.9287 1.37106C37.1339 0.858487 36.8838 0.276261 36.3712 0.0713448C35.8635 -0.132708 35.2764 0.114228 35.0715 0.62882L33.0715 5.62883C32.8663 6.14169 33.1161 6.72392 33.629 6.92883Z" fill="white"/>
<path d="M13.0714 6.37131C13.2277 6.76301 13.6036 7.00016 14.0002 7.00016C14.1242 7.00016 14.2503 6.97771 14.3712 6.92879C14.8837 6.72358 15.1338 6.14164 14.9286 5.62907L12.9287 0.629061C12.7235 0.114469 12.1378 -0.132754 11.629 0.0715861C11.1164 0.27679 10.8663 0.858728 11.0715 1.37131L13.0714 6.37131Z" fill="white"/>
</svg>

<svg width="47" height="48" fill="none" xmlns="http://www.w3.org/2000/svg"><path d="M46.542 20.16l-9.31-6c-.073-.047-.154-.065-.232-.09V12a1 1 0 00-1-1h-3.713L24.53 6.152a.999.999 0 00-1.06 0L15.714 11H11a1 1 0 00-1 1v2.069c-.078.026-.159.044-.231.09l-9.31 6A1.002 1.002 0 000 21v26a1 1 0 001 1h45a1 1 0 001-1V21a1 1 0 00-.458-.84zM24 8.18L28.513 11h-9.026L24 8.18zM12 13h23v22.5l.002.008-3.383 2.054-8.14-4.44a1.002 1.002 0 00-.975.01l-7.428 4.245-3.077-1.868L12 35.5V13zM2 21.545l8-5.155v17.905l-8-4.857v-7.893zm0 10.232l11.091 6.733-11.09 6.338V31.777zM4.015 46l18.997-10.854L42.912 46H4.015zM45 44.86l-11.352-6.19L45 31.776v13.085zm0-15.422l-8 4.857V16.39l8 5.155v7.893z" fill="#fff"/><path d="M16 23h12a1 1 0 001-1v-6a1 1 0 00-1-1H16a1 1 0 00-1 1v6a1 1 0 001 1zm1-6h10v4H17v-4zm14 8H15v2h16v-2zm0 4H15v2h16v-2zm11-17a.996.996 0 00.707-.293l3.535-3.535a1 1 0 10-1.414-1.414l-3.535 3.535A1 1 0 0042 12zm-37.707-.293a.997.997 0 001.414 0 1 1 0 000-1.414L2.172 6.758A1 1 0 10.758 8.172l3.535 3.535zm29.336-4.778a1 1 0 001.3-.558l2-5A1 1 0 0035.07.63l-2 5a1 1 0 00.558 1.3zm-20.558-.558a1 1 0 101.858-.742l-2-5a1 1 0 00-1.857.742l2 5z" fill="#fff"/></svg>
